X:407
T:B407-  Sad as Death
Q:1/4=120
L:1/4
M:C|
K:Gm
d3/2d/A3/2d/|(d/G/)G^F3/2A/|A3/2A/B3/2B/|\
c3/2d/d3/2d/|f(e/d/) (c/B/) (A/B/)|B3/2A/A(d/c/)|\
(e/d/) (c/B/) (B/c/) (d/e/)|c3/2B/B2|\
dBf3/4(e/4 d/e/)|e3/2d/d3/2d/|=B3/2B/(gd/)e/|\
e/(dc/)c2|":s:"A3/2G/^FF|d(d3/4A/4)BG|cde3/2G/|\
(G/A/) (B/c/) (d/e/) (d/c/)|A3/2G/G2|]
